X:1
T:Communion
T:Claudio Casciolini
T:Communion
T:Copyright © 2015 by CPDL.  This edition can be fully distributed, duplicated, performed, and recorded. 
T:Copyright © 2015 by CPDL.  This edition can be fully distributed, duplicated, performed, and recorded. 
T:Copyright © 2015 by CPDL.  This edition can be fully distributed, duplicated, performed, and recorded. 
T:Copyright © 2015 by CPDL.  This edition can be fully distributed, duplicated, performed, and recorded. 
T:Copyright © 2015 by CPDL.  This edition can be fully distributed, duplicated, performed, and recorded. 
T:Copyright © 2015 by CPDL.  This edition can be fully distributed, duplicated, performed, and recorded. 
T:Copyright © 2015 by CPDL.  This edition can be fully distributed, duplicated, performed, and recorded. 
T:Copyright © 2015 by CPDL.  This edition can be fully distributed, duplicated, performed, and recorded. 
T:Copyright © 2015 by CPDL.  This edition can be fully distributed, duplicated, performed, and recorded. 
T:Copyright © 2015 by CPDL.  This edition can be fully distributed, duplicated, performed, and recorded. 
T:Copyright © 2015 by CPDL.  This edition can be fully distributed, duplicated, performed, and recorded. 
T:Copyright © 2015 by CPDL.  This edition can be fully distributed, duplicated, performed, and recorded. 
T:Copyright © 2015 by CPDL.  This edition can be fully distributed, duplicated, performed, and recorded. 
T:Copyright © 2015 by CPDL.  This edition can be fully distributed, duplicated, performed, and recorded. 
T:Copyright © 2015 by CPDL.  This edition can be fully distributed, duplicated, performed, and recorded. 
T:Copyright © 2015 by CPDL.  This edition can be fully distributed, duplicated, performed, and recorded. 
T:Copyright © 2015 by CPDL.  This edition can be fully distributed, duplicated, performed, and recorded. 
T:Copyright © 2015 by CPDL.  This edition can be fully distributed, duplicated, performed, and recorded. 
T:Copyright © 2015 by CPDL.  This edition can be fully distributed, duplicated, performed, and recorded. 
T:Copyright © 2015 by CPDL.  This edition can be fully distributed, duplicated, performed, and recorded. 
T:Copyright © 2015 by CPDL.  This edition can be fully distributed, duplicated, performed, and recorded. 
T:Copyright © 2015 by CPDL.  This edition can be fully distributed, duplicated, performed, and recorded. 
T:Copyright © 2015 by CPDL.  This edition can be fully distributed, duplicated, performed, and recorded. 
T:Copyright © 2015 by CPDL.  This edition can be fully distributed, duplicated, performed, and recorded. 
T:Copyright © 2015 by CPDL.  This edition can be fully distributed, duplicated, performed, and recorded. 
T:Copyright © 2015 by CPDL.  This edition can be fully distributed, duplicated, performed, and recorded. 
T:Copyright © 2015 by CPDL.  This edition can be fully distributed, duplicated, performed, and recorded. 
T:Copyright © 2015 by CPDL.  This edition can be fully distributed, duplicated, performed, and recorded. 
C:Claudio Casciolini
Z:Copyright © 2015 by CPDL.  This edition can be fully distributed, duplicated, performed, and recorded.
Z:
%%score [ 1 2 3 4 ]
L:1/8
Q:1/2=76
M:4/2
K:F
V:1 treble nm="SOPRANO" snm="S."
V:2 treble nm="ALTO" snm="A."
V:3 treble-8 transpose=-12 nm="TENOR" snm="T."
V:4 bass nm="BASS" snm="B."
V:1
 z16 ||[M:4/2] z16 | F8 G8 | A8 G4 c4- | c4 B4 G4 c4 | A8 G8- | G4 F2 E2 A8 | =B6 A2 B2 c2 d4- | %8
w: ||ae- *|ter- nam do-|* na e- is|Do- *|||
 d4 c8 =B4 | c8 z4 G4 | A4 c4 _B4 A4 | G4 B4 c8 | z16 | z8 z4 c4 | d4 f4 e4 d4 | c8 z8 | %16
w: * * mi-|ne: et|lux per- pe- *|* tu- a,||et|lux per- pe- tu-|a|
 z4 c6 c2 =B4 | c4 A4 G8 | z4 f6 f2 e4 | f4 d4 c8 | d4 B4 c8 | z4 B6 B2 A4 | B4 G8 F4 | E8 F8- | %24
w: lu- ce- at|e- * is,|lu- ce- at|e- * *|* * is,|lu- ce- at|e- * *||
 F4 E2 D2 E8 | F16 |] z16 | z16 || z16 | z16 | z8 c8 | B4 G2 G2 A4 =B4 | c8 F4 B4 | A4 d4 G8 | %34
w: |is.|||||et|ti- bi red- de- tur|vo- * *|* * tum,|
 A12 G4- | G4 F8 F4 | E16- | E16 | z16 | z4 c4 c8 | c4 c4 d4 A4 | B4 B4 c8 | A4 F8 F4 | %43
w: in Je-|* ru- sa-|lem:|_||e- xau-|di o- ra- ti-|o- nem me-|am, ad te|
 G4 G4 A4 B2 c2 | F4 d8 c2 B2 | A12 G2 F2 | G8 z4 F4- | F4 F4 G4 G4 | A4 B2 c2 F4 A2 G2 | F8 B8- | %50
w: o- mnis ca- ro _|ve- * * *|* ni- *|at. ad|_ te o- mnis|ca- ro _ ve- * *||
 B4 A8 G4 | A12 =B4 | c16 | z8 z4 G4- | G4 G4 A4 A4 | =B4 c2 d2 G8 | A12 G2 F2 | G12 G4 | A16 |] %59
w: |* ni-|at.|ad|_ te o- mnis|ca- ro _ ve-||* ni-|at.|
[Q:1/2=88] z16 | z16 | z16 | z16 | z16 | A12 A4 | F4 G2 A2 B4 B4 | A12 d4- | d4 c2 B2 c4 A4 | %68
w: |||||Ky- ri-|e e- * le- i-|son, e-||
 B12 B4 | A4 A4 B4 A4 | G4 A2 B2 A6 G2 | F8 z8 | z8 z4 A4 | B4 A4 G4 A2 B2 | A6 G2 F2 D2 d4- | %75
w: le- i-|son, e- le- *|* * * * i-|son,|e-|le- * * * *|* i- son, _ e-|
 d4 c8 B4- | B4 A8 G4 | F16 | E12 E4 | ^F16 ||[Q:1/2=92] z16 | z4 A4 A4 A4 | d12 c4 | B12 A4 | %84
w: * le- *|||* i-|son.||Chri- ste e-|le- *|* i-|
 G4 G4 A4 =B4 | c12 _B4 | A12 A4 | G8 G8- | G4 A4 G4 c4- | c4 B4 A4 d4- | d4 c4 =B6 B2 | ^c16 | %92
w: son, Chri- ste e-|le- *|* i-|son, Chri-|* ste e- le-||* * * i-|son,|
 z16 | z4 A4 A4 A4 | d12 c4 | B12 A4 | G2 A2 B4 A6 A2 | A4 A8 G4 | F12 F4 | E16 || z16 | z16 | %102
w: |Chri- ste e-|le- *||* * * * i-|son, e- *|le- i-|son.|||
 z4 d8 d4 | d4 d4 =B4 d4 | G4 =B4 c4 B4 | c16 | z4 c8 c4 | c4 c4 A4 c4 | F4 A4 B4 d4 | %109
w: Ky- ri-|e e- le- i-|son, e- le- i-|son,|Ky- ri-|e e- le- i-|son, e- le- *|
 B4 d4 G4 A4 | G6 G2 A8 | z8 z4 d4 | B4 d4 G8- | G4 G4 A4 G4 | A12 A4 | ^F4 A4 D4 d4 | %116
w: * i- son, e-|le- i- son|e-|le- i- son,|_ e- le- i-|son, e-|le- i- son, e-|
 B4 d4 G4 A4 | B12 B4 | A16 |][K:C][Q:1/2=92] A8 A4 A4 | B4 B4 c4 c2 c2 | A12 A4 | ^G16 | %123
w: le- i- son, e-|le- i-|son.|Do- mi- ne|Je- su Chri- ste, Rex|glo- ri-|ae|
 ^G4 G2 G2 A4 A2 A2 | A6 A2 A4 A4 | B6 B2 B8 | c4 c4 c8 | B16 | z4 d4 d4 d2 c2 | B4 G4 z8 | %130
w: li- be- ra a- ni- mus|o- mni- um fi-|de- li- um|de- fun- cto-|rum|de poe- nis in-|fer- ni,|
 z4 c4 c4 c2 _B2 | A4 F4 d4 c2 c2 | c4 c4 c4 B2 A2 | B8 G4 G2 G2 | G4 G4 G8 | G16 || z16 | z16 | %138
w: de poe- nis in-|fer- ni et de pro-|fun- do la- * *|cu, et de pro-|fun- do la-|cu:|||
 z16 | z16 | z8 d4 G4 | c6 c2 B8 | c4 e4 d6 c2 | B8 c8 | d6 G2 G8 | z16 | z4 e4 e4 c4 | %147
w: ||ne ab-|sor- be- at|e- as tar- *||* ta- rus,||ne ca- dant|
 c4 A4 A4 D4 | z4 d4 d4 B4 | B4 G4 G4 E2 c2 | d6 d2 d8 | c8 c8 | c6 B2 B8 | e4 e4 e4 e4 | %154
w: in ob- scu- rum,|ne ca- dant|in ob- scu- rum: sed|si- gni- fer|san- ctus|Mi- cha- el|re- prae- sen- tet|
 d8 d4 d4 | e4 e4 d4 c4- | c4 B4 c8 || A8 A4 A4 | A6 A2 A8 | B8 B4 B4 | B6 B2 B8 | z8 B4 B4 | %162
w: e- as in|lu- cem san- *|* * ctam:|Quam o- lim|A- bra- hae,|quam o- lim|A- bra- hae,|pro- mi-|
 c4 c2 d2 c4 B2 B2 | c8 B8 | z4 c4 d8- | d8 c4 c4 | B4 A8 ^G4 | A16 || A6 A2 A4 A4 | G4 G4 G4 G4 | %170
w: si- sti et se- mi- ni|e- jus,|et se-|* mi- ni|e- * *|jus.|Ho- sti- as et|pre- ces ti- bi|
 F6 F2 F8 | E8 E4 E4 | F12 F4 | E16 | z16 | z8 z4 A4 | d6 d2 d8 | d4 d2 c2 _B6 A2 | _B16 | A8 F8 | %180
w: Do- mi- ne|lau- dis of-|fe- ri-|mus:||tu|su- sci- pe|pro a- ni- ma- bus|il-||
 E8 E4 E4 | A6 A2 A4 A4 | =B6 B2 B8 | c6 c2 c8 | d8 c4 c4 | c6 B2 B8 | z16 | z8 z4 G4 | c8 c4 _B4 | %189
w: lis, qua- rum|ho- di- e me-|mo- ri- am|fa- ci- mus:|fac e- as|Do- mi- ne||de|mor- te tran-|
 A8 G4 G4 | A8 A4 G4 | F8 A4 A4 | A8 G4 G4 | G4 F2 E2 F4 F4 | E16 | F16 || A8 A4 A4 | A6 A2 A8 | %198
w: si- re de|mor- te tran-|si- re, tran-|si- re tran-|si- * * re ad|vi-|tam.|Quam o- lim|A- bra- hae,|
 =B8 B4 B4 | B6 B2 B8 | z16 | G4 G4 c4 c2 B2 | A4 A2 A2 ^G4 E4 | z4 c4 d8- | d12 c2 c2 | %205
w: quam o- lim|A- bra- hae,||pro- mi- si- sti et|se- mi- ni e- jus,|et se-|* mi- ni|
 B4 A8 ^G4 | A4 A4 A4 A2 A2 | A12 G4 | F16 | E16 |][K:F][Q:1/2=88] z16 | z16 | z16 | z8 D8 | %214
w: e- * *|jus. et se- mi- ni|e- *||jus.||||San-|
 A8 z4 A4- | A4 F4 G4 A4 | B4 B2 B2 A4 A4 | G6 F2 G4 G4 | A8 z8 | z16 | z4 c4 B4 G4 | %221
w: ctus, san-|* ctus, san- ctus|Do- mi- nus De- us|Sa- * * ba-|oth.||Ple- ni sunt|
 A4 B2 B2 c4 A4 | G4 G6 G2 A4- | A4 G8 F4- | F4 E4 F8 || z16 | z16 | z8 z4 A4 | d4 d4 =B4 B4 | %229
w: coe- li et ter- *|ra glo- ri- a|_ tu- *|* * a.|||Ho-|san- na in ex-|
 e6 d2 ^c8 | d4 A8 G4 | F16 | E6 D2 E4 F4 | E16 |] z16 | z16 | z16 | z16 | z16 | z16 | z4 A8 A4 | %241
w: cel- * *|sis, in ex-|cel-||sis.|||||||Be- ne-|
 B8 B4 B4 | A8 D4 d4 | d8 c4 c4 | B12 B4 | A4 A4 A4 G2 F2 | G4 A4 G6 G2 | A16 | z16 | z8 z4 A4 | %250
w: di- ctus qui|ve- nit in|no- mi- ne|Do- mi-|ni, in no- mi- ne|Do- * * mi-|ni.||Ho-|
 d4 d4 =B4 B4 | e6 d2 ^c8 | d4 A8 G4 | F16 | E6 D2 E4 F4 | E16 |] z16 | z16 | z16 || %259
w: san- na in ex-|cel- * *|sis, in ex-|cel-||sis.||||
[Q:1/2=88] z16 | z16 | z16 | A8 d8 | c4 A4 B4 c4 | A8 G4 G4- | G4 A8 F4- | F4 G4 E4 F2 E2 | %267
w: |||qui tol-|lis pec- ca- ta|mun- di: do-|* na e-|* is re- * *|
 D2 D2 G8 G4- | G4 A4 F4 F4 | E2 C2 c8 =B2 A2 | ^G4 A8 G4 | A4 A8 =G4- | G4 F2 E2 F8 | E12 E4 | %274
w: * qui- em, do-|* na e- is|re- * * * *|* * qui-|em, do- na|_ e- is re-|* qui-|
 ^F16 |] z16 | z16 | z16 || A8 A8 | B12 G4 | G4 G4 G8 | G4 G8 A4- | A4 F8 G4 | E4 F4 D4 G4- | %284
w: em.||||qui tol-|lis pec-|ca- ta mun-|di: do- na|_ e- is,|re- qui- em, do-|
 G4 G8 A4- | A4 _B4 G8- | G4 F4 E6 E2 |[Q:1/2=72] ^F16 | z8 d6 c2 | B4 B4 A6 A2 | G4 ^F2 F2 G8- | %291
w: * na e-|* is re-|* * * qui-|em.|do- na|e- is re- qui-|em sem- pi- ter-|
 G4 ^F2 E2 F8 |][K:C][Q:1/2=76] z16 || A8 A4 A4 | B4 A4 A6 A2 | ^G8 z4 A4 | A4 A4 G4 G4 | %297
w: * * * nam.||lu- ce- at|e- is Do- mi-|ne: Cum|san- ctis tu- is|
 c4 e4 d8 | G4 G8 G4 | G4 ^F2 E2 F4 F4 | G16 |] z16 | z16 || G8 A4 G4 | A6 A2 G4 G4- | %305
w: in ae- ter-|num, qui- a|pi- * * * us|est.|||et lux per-|pe- tu- a lu-|
 G2 G2 ^F4 G8- | G4 ^F4 G4 B4 | c4 d4 c4 c4 | B4 G4 A8 | B4 G8 G4 | G4 ^F2 E2 F4 F4 | G16 |] %312
w: * ce- at e-|* * is. Cum|san ctis tu- is|in ae- ter-|nam, qui- a|pi- * * * us|est.|
V:2
 z16 ||[M:4/2] z16 | z4 F8 E4 | F8 C8 | F8 G8- | G4 F4 D4 G4 | E8 F8- | F2 D2 F8 E2 D2 | G12 G4 | %9
w: ||ae- *|ter- *|nam do-|* na e- is|Do- *||* mi-|
 G16 | z4 C4 D4 F4 | E4 D4 C4 E4 | F4 F4 G4 B4 | A4 G4 F4 G4- | G2 G2 F4 G4 A4 | G8 A4 F4- | %16
w: ne:|et lux per-|pe- tu- a, et|lux, et lux per-|pe- tu- a lu-|* ce- at e- *|* is, lu-|
 F2 F2 E4 F4 D4 | E4 F4 G4 G4 | A4 B4 A4 G4 | F4 B6 B2 A4 | B4 G4 F8 | G8 C4 F4- | %22
w: * ce- at e- *|* * is. et|lux per- pe- tu-|a lu- ce- at|e- * *|* is, lu-|
 F2 E2 D6 E2 F2 D2 | C16 | C16 | C16 |] z16 | z16 || z16 | z16 | F8 E4 C2 C2 | D4 E4 F4 E2 D2 | %32
w: * ce- at _ _ _|_|e-|is.|||||et ti- bi red-|de- tur vo- * *|
 G4 E4 D4 G4 | C4 F4 E4 E4- | E4 F4 D8 | C12 =B,4 | C4 G4 G8 | G4 G4 A4 E4 | F4 F4 G8 | E8 F8 | %40
w: |* * tum, in|_ Je- ru-|* sa-|lem: e- xau-|di o- ra- ti-|o- nem me-||
 F16 | z8 C8- | C4 C4 D4 D4 | E4 F2 G2 C4 D2 E2 | D4 F4 G8- | G4 F8 E2 D2 | E8 z8 | z16 | %48
w: am,|ad|_ te o- mnis|ca- ro _ ve- * *||* * ni- *|at,||
 z4 C8 C4 | D4 D4 E4 F2 G2 | C4 D2 E2 F4 G4- | G4 F2 E2 F4 F4 | E4 E8 E4 | F4 F4 G4 A2 B2 | %54
w: ad te|o- mnis ca- ro _|ve- * * * *|* * * * ni-|at: ad te|o- mnis ca- ro _|
 E2 F2 G8 F2 E2 | F4 E2 D2 C4 D2 E2 | F4 C4 F8- | F4 E2 D2 E6 E2 | F16 |] z16 | z16 | z16 | z16 | %63
w: ve- * * * *|||* * * * ni-|at.|||||
 z16 | z16 | D12 D4 | ^C4 D2 E2 F4 F4 | E12 A4- | A4 G2 F2 G4 E4 | F8 z4 D4 | E4 D4 ^C4 D2 E2 | %71
w: ||Ky- ri-|e e- * le- i-|son, e-|* * * le- i-|son, e-|le- * * i- *|
 D8 z8 | z4 E4 F4 E4 | D4 E2 F2 ^C6 D2 | E8 F6 F2 | E4 A8 G4- | G4 F8 E4- | E4 D2 ^C2 D8- | %78
w: son,|e- le- *||* * i-|son, e- le-|||
 D4 ^C2 =B,2 C6 C2 | D16 || z16 | z16 | z16 | z4 D4 D4 D4 | G12 F4 | E4 E4 F4 G4 | F16- | %87
w: * * * * i-|son.||||Chri- ste e-|le- i-|son, e- le- i-|son,|
 F8 E4 D4 | E4 F8 E4 | ^F4 G8 F4 | ^G4 A8 G4 | A4 E4 E4 E4 | A12 G4 | F12 E4 | D6 E2 F8 | %95
w: _ e- *|le- * *||* * i-|son, Chri- ste e-|le- *|* i-|son, _ _|
 z4 D4 D4 D4 | G12 F4 | E4 E4 F4 E4- | E4 D2 ^C2 D8- | D4 ^C2 =B,2 C8 || z4 A8 A4 | A4 A4 F4 A4 | %102
w: Chri ste e-|le- i-|son, Chri- ste e-|* le- * *|* i- * son.|Ky- ri-|e e- le- i-|
 D4 ^F4 G4 F4 | G16 | z4 G8 G4 | G4 G4 E4 G4 | C4 G4 A4 G4 | F16 | z4 F4 D4 F4 | B,4 F4 G4 F4- | %110
w: son, e- le- i-|son,|Ky- ri-|e e- le- i-|son, e- le- i-|son,|e- le- i-|son, e- le- *|
 F4 E4 F8- | F16 | z8 z4 G4 | E8- E6 E2 | E8 z8 | z4 ^F4 D4 F4 | G4 D4 D4 A4 | G12 G4 | ^F16 |] %119
w: * i- son,|_|e-|le- * i-|son,|e- le- i-|son, e- le- *|* i-|son|
[K:C] E8 E4 E4 | E4 E4 E4 E2 E2 | E4 D2 C2 D6 D2 | E16 | E4 E2 E2 E4 E2 E2 | F6 F2 F4 F4 | %125
w: Do- mi- ne|Je- su Chri- ste, Rex|glo- * * * ri-|ae|li- be- ra a- ni- mus|o- mni- um fi-|
 D6 D2 G8 | G4 G4 A8 | D16 | z16 | z4 G4 G4 G2 F2 | E4 C4 F4 F2 F2 | F12 E2 F2 | G16 | %133
w: de- li- um|de- fun- cto-|rum||de poe- nis in-|fer- ni et de pro-|fun- do _|la-|
 G8 D4 D2 D2 | E4 E4 D8 | E16 || z16 | z16 | z16 | z16 | z16 | A4 D4 G6 G2 | E8 F4 A4 | %143
w: cu, et de pro-|fun- do la-|cu:||||||ne ab- sor- be-|at e- as|
 G6 F2 E4 D2 C2 | B,6 B,2 B,8 | z4 G4 G4 E4 | E4 C4 C4 A,4 | z4 A4 A4 F4 | F4 D4 D4 G,4 | %149
w: tar- * * * *|* ta- rus,|ne ca- dant|in ob- scu- rum,|ne ca- dant|in ob- scu- rum:|
 z8 z4 G4 | G6 G2 G8 | G8 G8 | G6 G2 G8 | G4 G4 G4 G4 | G8 G4 G4 | G4 G4 A4 E2 F2 | G8 G8 || %157
w: sed|si- gni- fer|san- ctus|Mi- cha- el|re- prae- sen- tet|e- as in|lu- cem san- * *|* ctam:|
 F8 F4 F4 | F6 F2 F8 | D8 D4 D4 | D6 D2 D8 | D4 D4 G4 G2 F2 | E4 E2 G2 A4 E4 | A8 ^G8 | %164
w: Quam o- lim|A- bra- hae,|quam o- lim|A- bra- hae,|pro- mi- si- sti et|se- mi- ni e- *|* jus,|
 z4 A4 F6 G2 | A4 G2 F2 E4 E2 E2 | E16 | E16 || F6 F2 F4 F4 | F4 F4 E4 E4 | E6 D2 D8 | ^C8 C4 C4 | %172
w: et se- *|* * * * mi- ni|e-|jus.|Ho- sti- as et|pre- ces ti- bi|Do- mi- ne|lau- dis of-|
 D12 D4 | ^C8 z4 E4 | A6 A2 A8 | A4 A2 G2 F6 E2 | ^F8 G4 F4 | G16 | G4 G2 A2 G4 F4 | E12 D4 | %180
w: fe- ri-|mus: tu|su- sci- pe|pro a- ni- ma- bus|il- * *|lis|pro a- ni- ma- bus|il- *|
 ^C8 C4 C4 | D6 D2 D4 D4 | D6 D2 D8 | G6 G2 G8 | G8 G4 G4 | G6 G2 G4 D4 | G8 G4 F4 | E8 E4 E4 | %188
w: lis qua- rum|ho- di- e me-|mo- ri- am|fa- ci- mus:|fac e- as|Do- mi- ne de|mor- te tran-|si- re ad|
 F8 G8- | G4 F4 E4 E4 | F8 C4 C4 | D8 E4 E4 | F8 E4 E4 | ^C8 D4 D4 | D4 ^C2 B,2 C8 | D16 || %196
w: vi- *|* * tam, de|mor- te tran-|si- re, tran-|si- re, tran-|si- re ad|vi- * * *|tam.|
 C8 C4 C4 | F6 F2 F8 | D8 D4 D4 | G6 G2 G8 | D4 D4 G4 G2 F2 | E4 G4 A4 E2 E2 | E8 E8 | z4 E4 F8- | %204
w: Quam o- lim|A- bra- hae,|quam o- lim|A- bra- hae,|pro- mi- si- sti et|se- * * mi- ni|e- jus,|et se-|
 F8 E4 E2 E2 | E16 | E4 E4 F4 F2 F2 | E16- | E8 D8- | D4 ^C2 B,2 C8 |][K:F] z16 | z16 | z16 | %213
w: * * mi- ni|e-|jus. et se- mi- ni|e-||* * * jus.||||
 z8 z8 | A,8 D8 | z4 D8 A,4 | D4 E4 F4 F2 F2 | E6 D2 E4 E4 | F8 z8 | z8 z4 F4 | E4 C4 D4 E2 E2 | %221
w: |San- ctus,|san- ctus,|san- ctus Do- mi- nus|De- us Sa- ba-|oth.|Ple-|ni sunt coe- li et|
 F4 D4 G4 F4 | E4 E6 E2 F4 | D8 C8- | C8 C8 || z16 | z4 D4 G4 G4 | E4 E4 A6 G2 | F8 G4 G4 | %229
w: ter- * * *|ra glo- ri- a|_ tu-|* a.||Ho- san- na|in ex- cel- *|sis, in ex-|
 G6 F2 E8 | F12 E4- | E4 D2 ^C2 D8- | D4 ^C2 =B,2 C4 D4 | ^C16 |] z16 | z16 | z16 | z16 | %238
w: cel- * sis,|in ex-|* cel- * *||sis.|||||
 z4 D8 D4 | F8 F4 F4 | E8 A,4 A4 | A8 G4 G4 | G6 G2 F4 F4 | E8 E4 E4 | F8 G8- | G4 F2 E2 F4 E2 D2 | %246
w: Be- ne-|di- ctus qui|ve- nit in|no- mi- ne|Do- mi- ni, in|no- mi- ne|Do- *||
 E4 F8 E4 | F16 | z4 D4 G4 G4 | E4 E4 A6 G2 | F8 G4 G4 | G6 F2 E8 | F12 E4- | E4 D2 ^C2 D8- | %254
w: * * mi-|ni.|Ho- san- na|in ex- cel- *|* sis, Ho-|san- * na|in ex-|* cel- * *|
 D4 ^C2 =B,2 C4 D4 | ^C16 |] z16 | z16 | z16 || z16 | z16 | D8 G8 | F4 D4 D4 G4 | E4 F8 E4 | %264
w: |sis.||||||qui tol-|lis pec- ca- ta|mun- * *|
 F8 E8 | E8 F8 | D8 E4 A,4- | A,4 =B,8 E4- | E4 C4 D6 D2 | G,4 E4 F8 | E4 E4 E6 E2 | E4 F8 E4- | %272
w: * di:|do- na|e- is, do-|* na e-|* is re- qui-|em, do- na|e- is re- qui-|em, do- na|
 E4 D2 ^C2 D8- | D4 ^C2 =B,2 C6 C2 | D16 |] z16 | z16 | z16 || E8 F8 | D12 D4 | E4 E4 D8 | E8 E8 | %282
w: _ e- is re-|* * * * qui-|em.||||qui tol-|lis pec-|ca- ta mun-|di: do-|
 F8 D8 | E4 A,8 =B,4- | B,4 E8 C4 | F4 D8 E4- | E4 D8 ^C4 | D8 ^F6 E2 | D4 ^F4 G4 F4 | G8 D4 D4 | %290
w: na e-|is, do- na|_ e- is|re- * *|* * qui-|em. do- na|e- is re- qui-|em sem- pi-|
 D16 | D16 |][K:C] z16 || E8 E4 E4 | E4 E4 C4 D4 | E8 z4 E4 | F4 F4 D4 D4 | G4 G4 F8 | E4 E8 D4 | %299
w: ter-|nam.||lu- ce- at|e- is Do- mi-|ne: Cum|san- ctis tu- is|in ae- ter-|num, qui- a|
 D12 D4 | D16 |] z16 | z16 || E8 F4 G4 | F6 F2 E4 E4- | E2 D2 C4 D4 E4 | D8 D4 G4 | G4 G4 E4 ^F4 | %308
w: pi- us|est.|||et lux per-|pe- tu- a lu-|* ce- at e- *|* is. Cum|san ctis tu- is|
 G4 E4 E4 ^F4 | G4 D8 E4 | D12 D4 | D16 |] %312
w: in ae- ter- *|nam, qui- a|pi- us|est.|
V:3
 F4 G2 F2 F8 ||[M:4/2] F8 G8 | A8 c8 | F4 f8 e4- | e4 d8 c4- | c4 d4 =B4 c4- | c4 c4 c4 d4- | %7
w: Re- * qui- em|ae- *|ter- *|nam do- na|_ e- is|_ Do- * *|* mi- ne, Do-|
 d2 =B2 d8 c2 B2 | e8 d6 d2 | e16 | z16 | z4 G4 A4 c4 | B4 A4 G4 F4 | E4 B4 c4 e4 | d4 c4 B4 d4 | %15
w: |* * mi-|ne:||et lux per-|pe- * * tu-|a, et lux per-|pe- * * tu-|
 G4 c6 c2 =B4 | c6 _B2 A4 F4 | G4 A4 B4 c4- | c4 F4 c6 B2 | A4 B4 c8 | z8 z4 f4- | f2 f2 e4 f4 c4 | %22
w: a lu- ce- at|e- * * *|||* * is,|lu-|* ce- at e- *|
 d6 c2 B8- | B4 A2 G2 A8 | G16 | A16 |] (F2 G2) (G2 F2) (G2 A2) A2 A2 | A2 A2 A2 G2 A8 || z8 c8 | %29
w: |||is.|Te _ de- * cet _ hy- mnus|De- us in Si- on|et|
 B4 G2 G2 A4 c4 | c4 =B4 c8 | z16 | c8 B4 G2 G2 | A4 =B4 c8 | c4 c8 B4- | B4 A8 G2 F2 | G8 z4 c4 | %37
w: ti- bi red- de- tur|vo- * tum,||et ti- bi red-|de- tur vo-|tum in Je-|* ru- sa- *|men: e-|
 c8 c4 c4 | d4 A4 B4 B4 | c6 B2 A8 | A8 z4 d4 | d8 G4 G4 | A4 A4 A4 F4 | c8 e8 | A4 B4 G4 A2 B2 | %45
w: xau- di o-|ra- ti- o- nem|me- * *|am, e-|xau- di o-|ra- ti- o- nem|me- *||
 c16 | z4 c8 c4 | d4 d4 e4 f2 g2 | c8- c2 d2 c2 B2 | A8 B8 | c8 B8 | A4 B2 c2 d6 d2 | G16 | z16 | %54
w: am,|ad te|o- mnis ca- ro _|ve- * * * *|||* * * * ni-|at,||
 z4 c8 c4 | d4 d4 e4 f2 g2 | c16- | c12 c4 | c16 |] A12 A4 | F4 G2 A2 B4 B4 | A12 d4- | %62
w: ad te|o- mnis ca- ro _|ve-|* ni-|at.|Ky- ri-|e e- * le- i-|son, e-|
 d4 c2 B2 c4 A4 | B12 B4 | A4 =B2 ^c2 d4 e4 | A4 d4 B4 G4- | G4 F2 E2 D2 E2 F2 G2 | %67
w: |le- i-|son, e- * le- i-|son, e- le- *||
 A2 B2 c2 d2 e4 f4 | d4 e2 d2 e4 ^c4 | d16 | z8 z4 A4 | B4 A4 G4 A2 B2 | A4 G4 A8 | z4 F4 G4 F4 | %74
w: |* * * * i-|son,|e-|le- * * * *|* i- son,|e- le- i-|
 E4 e8 d4 | c2 B2 A4 B4 c4- | c4 d4 e8 | A16- | A12 A4 | A16 || z4 A4 A4 A4 | d12 c4 | B12 A4 | %83
w: son, e- *|* * * * le-|||* i-|son.|Chri- ste e-|le- *||
 B6 A2 B2 c2 d4- | d4 c4 F6 F2 | G4 G4 d4 d4 | c8 d6 e2 | d12 d4 | c4 c4 c6 B2 | A4 B2 c2 d6 c2 | %90
w: |* * * i-|son, Chri- ste e-|le- * *|* i-|son, e- le- *||
 =B4 c2 d2 e6 d2 | e16 | z4 A4 A4 A4 | d12 c4 | B12 A4 | B6 A2 B2 c2 d4 | e12 d4 | ^c4 c4 d4 e4 | %98
w: * * * * i-|son,|Chri- ste e-|le- *|||* i-|son, e- lei- *|
 A16 | A16 || z16 | z4 d8 d4 | d4 d4 B4 d4 | G4 =B4 d4 B4 | =B4 d4 e4 d4 | e4 e8 e4 | e4 e4 c4 e4 | %107
w: |son.||Ky- ri-|e e- le- i-|son, e- le- i-|son, e- le- i-|son, Ky- ri-|e e- le- i-|
 A4 A4 F4 A4 | d4 c4 d8- | d4 d4 c8 | z4 c4 A4 c4 | F4 f4 d4 f4 | B16- | B4 B4 A4 =B4 | %114
w: son, e- le- *||* i- son,|e- le- i-|son, e- le- i-|son,|* e- le- i-|
 ^c4 c4 d4 c4 | d4 A4 B4 A4 | B12 d4 | d12 d4 | d16 |][K:C] c8 c4 c4 | B4 e4 c4 c2 c2 | c8 A8 | %122
w: son, e- le- i-|son, e- le- i-|son, e-|le- i-|son.|Do- mi- ne|Je- su Chri- ste, Rex|glo- ri-|
 B16 | B4 B2 B2 c4 c2 c2 | d6 d2 d4 d4 | B6 B2 d8 | e4 e4 d8 | d8 z4 d4 | d4 d2 c2 B4 G4 | %129
w: ae|li- be- ra a- ni- mus|o- mni- um fi-|de- li- um|de- fun- cto-|rum de|poe- nis in- fer- ni,|
 z8 z4 e4 | e4 e2 d2 c4 A4 | c4 A2 A2 d4 e4 | e12 d2 c2 | d8 B4 B2 B2 | c4 c4 c4 B4 | c16 || %136
w: de|poe- nis in- fer- ni,|et de pro- fun- do|la- * *|cu, et de pro-|fun- do la- *|cu:|
 e8 e4 e4 | c8 c4 c4 | d8 d4 d4 | B6 c2 d8- | d4 c4 B8 | z16 | z16 | z16 | z4 d4 d4 B4 | %145
w: li- be- ra|e- as de|o- re le-|o- * *|* * nis,||||ne ca- dant|
 B4 G4 G4 G4 | c4 c4 A8 | z4 A4 A4 A2 A2 | d4 d4 B6 B2 | B8 e4 e4 | d6 d2 d8 | e4 e4 e4 e4 | %152
w: in ob- scu- rum,|ne ca- dant|sed si- gni- fer|san- ctus Mi- cha-|el san- ctus|Mi- cha- el|re- prae- sen- tet|
 d8 d8 | c4 c4 c4 c4 | B8 B4 B4 | c4 c4 A2 B2 c4 | d8 e8 || c8 c4 c4 | c6 c2 c8 | B8 B4 B4 | %160
w: e- as.|re- prae- sen- tet|e- as. in|lu- cem san- * *|* ctam:|Quam o- lim|A- bra- hae,|quam o- lim|
 B6 B2 B8 | z8 d4 d4 | e4 e2 d2 e4 e2 e2 | e8 e8 | z4 e4 d4 A4- | A2 G2 A2 B2 c4 A2 A2 | %166
w: A- bra- hae,|pro- mi-|si- sti et se- mi- ni|e- jus,|et se- *|* * * * * mi- ni|
 ^G4 c4 B8 | ^c16 || d6 d2 d4 d4 | B4 B4 c4 c4 | d6 d2 d8 | A8 A4 A4 | ^G12 G4 | A16 | z8 z4 A4 | %175
w: e- * *|jus.|Ho- sti- as et|pre- ces ti- bi|Do- mi- ne|lau- dis of-|fe- ri-|mus:|tu|
 d6 d2 d8 | d4 d2 c2 _B4 A4 | _B6 c2 d8 | d4 d2 d2 ^c4 d4 | e8 A8 | A8 A4 A4 | A6 A2 A4 d4 | %182
w: su- sci- pe|pro a- ni- ma- bus|il- * lis|pro a- ni- ma- bus|il- *|lis qua- rum|ho- di- e me-|
 =B6 B2 B8 | e6 e2 e8 | d8 e4 e4 | d6 d2 d4 B4 | e8 e4 d4 | c8 c4 c4 | c8 c4 c4 | c8 c4 c4 | %190
w: mo- ri- am|fa- ci- mus:|fac e- as|Do- mi- ne de|mor- te tran-|si- re de|mor- te tran-|si- re de|
 c8 c4 e4 | A8 A4 A4 | A8 _B4 B4 | A16- | A16 | A16 || A8 A4 A4 | c6 c2 c8 | B8 B4 B4 | d6 d2 d8 | %200
w: mor- te tran-|si- re, tran-|si- re ad|vi-||tam.|Quam o- lim|A- bra- hae,|quam o- lim|A- bra- hae,|
 z8 B4 B4 | e4 e2 d2 e4 e2 B2 | c8 B8 | z4 c4 A6 G2 | A6 B2 c2 B2 A4 | ^G4 A4 B8 | %206
w: pro- mi-|si- sti et se- mi- ni|e- jus,|et se- *|* * * mi- ni|e- * *|
 ^c4 c4 d4 d2 d2 | e8 A8- | A16 | A16 |][K:F] D8 A8 | z4 A8 F4 | G4 A4 B8 | A6 G2 F4 E2 D2 | %214
w: jus. et se- mi- ni|e- *||jus.|San- ctus,|san- ctus,|san- * *||
 ^C4 A2 B2 A6 G2 | F4 A2 A2 G4 F4 | B8 c6 c2 | c16 | z4 f4 e4 c4 | d4 e2 e2 f4 d4 | e4 A4 B8 | %221
w: ctus, san- * * ctus|Do- mi- nus De- us|Sa- * ba-|oth.|Ple- ni sunt|coe- li et ter- *||
 c4 B2 d2 c8 | c4 c6 c2 c4- | c4 B8 A4 | G8 A8 || z4 A4 d4 d4 | =B4 B4 e6 d2 | ^c8 d8 | %228
w: |ra glo- ri- a|_ tu- *|* a.|Ho- san- na|in ex- cel- *|* sis,|
 z4 d4 d4 =B4 | =B4 B4 ^c6 B2 | A8 A8 | A16 | A16 | A16 |] z4 A8 A4 | B8 B4 B4 | A8 D4 d4 | %237
w: Ho- san- na|in ex- cel- *|sis, in|ex-|cel-|sis.|Be- ne-|di- ctus qui|ve- nit in|
 d8 c4 c4 | B12 B4 | A8 d8 | ^c6 c2 c4 d4- | d4 ^c2 d2 e8- | e8 A6 A2 | A8 z4 c4 | d8 c8- | %245
w: no- mi- ne|Do- mi-|ni, in|no- mi- ne Do-||* * mi-|ni, in|no- *|
 c4 c4 c6 d2 | c12 c4 | c4 A4 d4 d4 | =B4 B4 e6 d2 | ^c8 d8 | z4 d4 d4 =B4 | =B8 ^c6 B2 | A8 A8 | %253
w: * mi- ne _|Do- mi-|ni. Ho- san- na|in ex- cel- *|* sis,|Ho- san- na|in ex- *|cel- sis,|
 A12 A4 | A16 | A16 |] A12 A4 | B16 | A16 || A8 d8 | c4 A4 B4 c4 | A4 d8 ^c4 | d8 A4 =B4 | %263
w: in ex-|cel-|sis.|A- gnus|De-|i,|qui tol-|lis pec- ca- ta|mun- * *|di, pec- *|
 c4 d8 c4- | c4 A2 B2 c8 | c8 d8 | =B8 c8 | d8 =B8 | c4 A4 _B8 | c2 d2 e8 d4- | d4 c4 =B6 B2 | %271
w: ca- ta mun-|* * * di:|do- na|e- is,|do- na|e- * is|re- * * *|* * * qui-|
 A4 A8 A4 | A8 A8 | A12 A4 | A16 |] A12 A4 | B16 | A16 || ^c8 d8 | B12 B4 | c4 c4 c4 =B4 | c8 c8 | %282
w: em, do- na|e- is|re- qui-|em.|A- gnus|De-|i,|qui tol-|lis pec-|ca- ta mun- *|di: do-|
 d8 =B8 | c8 d8 | =B8 c8 | d6 c2 _B8 | A12 A4 | A8 d6 c2 | B4 A4 G4 D4 | d12 A2 A2 | B4 A4 B8 | %291
w: na e-|is, do-|na e-|* * is|re- qui-|em, do- na|e- is re- qui-|em sem- pi-|ter- * *|
 A16 |][K:C] A2 (G2 F2) (G2 A2) G6 || c8 c4 c4 | B4 c4 A6 A2 | B4 B4 c4 c4 | d4 d4 B4 B4 | %297
w: nam.|Lux ae- * ter- * na|lu- ce- at|e- is Do- mi-|ne: Cum san- ctis|tu- is in ae-|
 c2 G2 c8 B4 | c4 c8 B4 | A12 A4 | B16 |] G2 A2 c2 c2 c2 c2 c2 c2 | c2 d2 d2 c2 c8 || c8 c4 c4 | %304
w: ter- * * *|num, qui- a|pi- us|est.|Re- qui- em ae- ter- nam do- na|e- is Do- mi- ne,|et lux per-|
 c6 c2 c8 | c8 B4 c4 | A8 G4 d4 | e4 d4 e4 c4 | d4 e4 c8 | d4 B8 c4 | A12 A4 | B16 |] %312
w: pe- tu- a|lu- ce- at|e- is. Cum|san ctis tu- is|in ae- ter-|nam, qui- a|pi- us|est.|
V:4
 z16 ||[M:4/2] z4 F,8 E,4 | F,8 C,8 | z8 C,8 | D,8 E,8 | F,4 F,8 E,4 | C,8 F,8 | G,16- | G,12 G,4 | %9
w: |ae- *|ter- nam|do-|na e-|is, do- na|e- is|Do-|* mi-|
 C,16 | z16 | z8 z4 C,4 | D,4 F,4 E,4 D,4 | C,4 G,4 A,4 C4 | B,4 A,4 G,4 F,4- | %15
w: ne:||et|lux per- pe- tu-|a, et lux per-|pe- tu- a lu-|
 F,2 F,2 E,4 F,4 D,4 | C,8 D,8 | C,4 F,6 F,2 E,4 | F,4 D,4 C,8 | D,4 G,4 E,4 F,4 | %20
w: * ce- at e- *||is, lu- ce- at|e- * *||
 B,,4 B,6 B,2 A,4 | B,4 G,4 F,8 | B,,16 | C,16- | C,16 | F,16 |] z16 | z16 || F,8 E,4 C,2 C,2 | %29
w: is, lu- ce- at|e- * *||||is.|||et ti- bi red-|
 D,4 E,4 F,4 E,4 | D,8 C,8 | z8 F,8 | E,4 C,2 C,2 D,4 E,4 | F,4 D,4 C,4 C,4- | %34
w: de- tur vo- *|* tum,|et|ti- bi red- de- tur|vo- * tum, in|
 C,4 A,,4 B,,2 C,2 D,2 E,2 | F,8 D,8 | C,16- | C,16 | z16 | z8 z4 F,4 | F,8 F,4 F,4 | %41
w: _ Je- ru- * * *|* sa-|lem:|_||e|xau- di o-|
 G,4 D,4 E,4 E,4 | F,8 D,8 | C,4 C,8 C,4 | D,4 D,4 E,4 F,2 G,2 | C,16- | %46
w: ra- ti- o- nem|me- *|am, ad te|o- mnis ca- ro _|ve-|
 C,4 C2 B,2 A,2 G,2 F,2 E,2 | D,2 B,,2 B,8 A,2 G,2 | F,8 z4 F,4- | F,4 F,4 G,4 G,4 | %50
w: |* * * ni- *|at. ad|_ te o- mnis|
 A,4 B,2 C2 D,4 E,4 | F,8 D,8 | C,4 C,8 C,4 | D,4 D,4 E,4 F,2 G,2 | C,16- | C,16- | C,16- | %57
w: ca- ro _ ve- *|* ni-|at, ad te|o- mnis ca- ro _|ve-|||
 C,12 C,4 | F,16 |] z16 | D,12 D,4 | ^C,4 D,2 E,2 F,4 F,4 | E,12 A,4- | A,4 G,2 F,2 G,4 E,4 | %64
w: * ni-|at.||Ky- ri-|e e- * le- i-|son, e-||
 F,6 E,2 D,4 ^C,4 | D,4 E,2 F,2 G,4 G,4 | A,6 G,2 F,2 E,2 D,4 | A,,4 A,8 G,2 F,2 | G,12 G,4 | %69
w: le- * * i-|son, e- * le- i-|son, e- le- * i-|son, e- * *|le- i-|
 D,16 | z16 | z4 D,4 E,4 D,4 | ^C,4 D,2 E,2 D,4 A,4 | D,4 D,4 E,4 D,4 | ^C,8 D,8 | A,,4 A,4 E,8 | %76
w: son,||e- le- *|* * * * i-|son, e- lei- *||son, e- le-|
 F,8 ^C,8 | D,16 | A,,12 A,,4 | D,16 || z16 | z16 | z4 D,4 D,4 D,4 | G,12 F,4 | E,8 D,6 D,2 | %85
w: ||* i-|son.|||Chri- ste e-|le- *|* * i-|
 C,4 C,4 D,4 E,4 | F,6 E,2 D,6 C,2 | =B,,16 | C,8 C,8 | D,16 | E,12 E,4 | A,,16- | A,,16 | z16 | %94
w: son, Chri- ste e-|lei- * * *||son, e-|le-|* i-|son,|_||
 z4 D,4 D,4 D,4 | G,12 F,4 | E,4 D,4 ^C,4 D,4 | A,,4 A,4 F,4 ^C,4 | D,12 D,4 | A,,16 || z16 | z16 | %102
w: Chri- ste e-|le- *|* * * i-|son, Chri- ste e-|le- i-|son.|||
 z16 | z4 G,8 G,4 | G,4 G,4 E,4 G,4 | C,4 C8 C4 | C4 C4 A,4 C4 | F,12 F,4 | D,4 F,4 B,,4 B,4 | %109
w: |Ky- ri-|e e- le- i-|son, Ky- ri-|e e- le- i-|son, e-|le- i- son, e-|
 G,4 B,4 E,4 F,4 | C,6 C,2 F,4 F,4 | D,4 F,4 B,,4 B,4 | G,4 B,4 E,8- | E,4 E,4 ^C,4 E,4 | %114
w: le- i- son, e-|le- i- son, e-|le- i- son, e-|le- i- son,|_ e- le- i-|
 A,,4 A,4 ^F,4 A,4 | D,4 D,4 B,,4 D,4 | G,,4 G,4 G,4 ^F,4 | G,12 G,4 | D,16 |][K:C] A,8 A,4 A,4 | %120
w: son, e- le- i-|son, e- le- i-|son, e- le- *|* i-|son.|Do- mi- ne|
 ^G,4 G,4 A,4 A,,2 A,,2 | F,12 F,4 | E,16 | E,4 E,2 E,2 A,4 A,2 A,2 | F,6 F,2 F,4 F,4 | %125
w: Je- su Chri- ste, Rex|glo- ri-|ae|li- be- ra a- ni- mus|o- mni- um fi-|
 G,6 G,2 G,8 | C4 C4 ^F,8 | G,16 | z8 z4 G,4 | G,4 G,2 F,2 E,4 C,2 C2 | C4 C2 B,2 A,4 F,4 | %131
w: de- li- um|de- fun- cto-|rum|de|poe- nis in- fer- ni, de|poe- nis in- fer- ni,|
 F,4 F,2 F,2 =B,,4 C,4 | G,16 | G,8 G,4 G,2 F,2 | E,4 C,4 G,,8 | C,16 || z16 | A,8 A,4 A,4 | %138
w: et de pro- fun- do|la-|cu, et de pro-|fun- do la-|cu:||li- be- ra|
 F,8 F,4 F,4 | G,8 G,4 G,4 | E,6 F,2 G,8- | G,4 ^F,4 G,8 | z16 | z16 | z8 z4 G,4 | %145
w: e- as de|o- re le-|o- * *|* * nis,|||ne|
 G,4 E,4 E,4 C,4 | C,4 A,,4 z4 A,4 | A,4 F,4 F,4 D,4 | D,4 B,,4 z4 G,4 | G,4 G,2 G,2 C4 C4 | %150
w: ca- dant in ob-|scu- rum, ne|ca- dant in ob-|scu- rum: sed|si- gni- fer san- ctus|
 B,6 B,2 B,8 | C4 C4 C4 C,4 | G,8 G,8 | C4 C4 C4 C,4 | G,8 G,4 G,4 | C4 C,4 F,2 G,2 A,4 | %156
w: Mi- cha- el|re- prae- sen- tet|e- as.|re- prae- sen- tet|e- as. in|lu- cem san- * *|
 G,8 C,8 || F,8 F,4 F,4 | F,6 F,2 F,8 | G,8 G,4 G,4 | G,6 G,2 G,8 | z8 G,4 G,4 | %162
w: * ctam:|Quam o- lim|A- bra- hae,|quam o- lim|A- bra- hae,|pro- mi-|
 C4 C2 B,2 A,4 ^G,2 G,2 | A,8 E,8 | z4 A,4 D,6 E,2 | F,6 G,2 A,4 A,,2 A,,2 | E,16 | A,,16 || z16 | %169
w: si- sti et se- mi- ni|e- jus,|et se- *|* * * mi- ni|e-|jus.||
 z16 | z16 | z16 | z8 z4 D,4 | A,6 A,2 A,8 | A,4 A,2 G,2 F,6 E,2 | D,8 D,8 | z8 z4 D,4 | %177
w: |||tu|su- sci- pe|pro a- ni- ma- bus|il- lis|tu|
 G,6 G,2 G,8 | G,4 G,2 F,2 E,4 D,4 | ^C,8 D,8 | A,,8 A,4 A,4 | ^F,6 F,2 F,4 F,4 | G,6 G,2 G,8 | %183
w: su- sci- pe|pro a- ni- ma- bus|il- *|lis qua- rum|ho- di- e me-|mo- ri- am|
 E,6 E,2 E,8 | B,8 C4 C,4 | G,6 G,2 G,8 | z8 G,8 | C8 C4 _B,4 | A,8 E,4 E,4 | F,8 C,4 C,4 | %190
w: fa- ci- mus:|fac e- as|Do- mi- ne|de|mor- te tran-|si- re ad|vi- tam. de|
 F,8 F,4 E,4 | D,8 ^C,4 C,4 | D,8 G,4 G,,4 | A,,16- | A,,16 | D,16 || F,8 F,4 F,4 | F,6 F,2 F,8 | %198
w: mor- te tran-|si- re, tran-|si- re ad|vi-||tam.|Quam o- lim|A- bra- hae,|
 G,8 G,4 G,4 | G,6 G,2 G,8 | z8 G,4 G,4 | C4 C2 B,2 A,4 ^G,2 G,2 | A,8 E,8 | z4 A,4 D,6 E,2 | %204
w: quam o- lim|A- bra- hae,|pro- mi-|si- sti et se- mi- ni|e- jus,|et se- *|
 F,6 G,2 A,4 A,,2 A,,2 | E,16 | A,,4 A,4 F,4 E,2 D,2 | ^C,16 | D,16 | A,,16 |][K:F] z8 A,,8 | %211
w: * * * mi- ni|e-|jus. et se- mi- ni|e-||jus.|San-|
 D,8 z4 D,4- | D,4 C,4 D,4 E,4 | F,6 E,2 D,4 C,2 B,,2 | A,,4 A,2 G,2 F,6 E,2 | D,8 E,4 F,4 | %216
w: ctus, san-|* ctus, san- *||ctus, san- * * ctus|Do- mi- nus|
 D,4 G,4 F,6 F,2 | C,8 z4 C4 | A,4 F,4 G,4 A,2 A,2 | B,4 G,4 F,8 | C,8 G,8 | F,4 G,4 E,4 F,4 | %222
w: De- us Sa- ba-|oth. Ple-|ni sunt coe- li et|ter- * *|||
 C,4 C6 B,2 A,4 | D,4 E,4 F,8 | C,8 F,8 || z8 z4 D,4 | G,4 G,4 E,4 E,4 | A,6 G,2 F,4 F,4 | %228
w: ra glo- ri- a|tu- * *|* a.|Ho-|san- na in ex-|cel- * sis, Ho-|
 B,4 B,4 G,4 G,4 | E,8 A,6 G,2 | F,8 ^C,4 C,4 | D,16 | A,16 | A,,16 |] z16 | z4 D,8 D,4 | %236
w: san- na in ex-|cel- * *|sis, in ex-|cel-||sis.||Be- ne-|
 F,8 F,4 F,4 | E,8 A,,4 A,4 | A,8 G,4 G,4 | F,6 E,2 D,2 E,2 F,2 G,2 | A,6 A,2 A,4 F,4 | %241
w: di- ctus qui|ve- nit in|no- mi- ne|Do- * * * * *|* mi- ni, in|
 G,8 G,4 G,4 | D,12 D,4 | A,,4 A,4 A,8- | A,4 G,2 F,2 E,6 E,2 | F,4 F,4 F,4 F,2 F,2 | C,12 C,4 | %247
w: no- mi- ne|Do- mi-|ni, in no-|* * * * mi-|ne, in no- mi- ne|Do- mi-|
 F,8 z4 D,4 | G,4 G,4 E,4 E,4 | A,6 G,2 F,4 F,4 | B,4 B,4 G,4 G,4 | E,8 A,6 G,2 | F,8 ^C,4 C,4 | %253
w: ni. Ho-|san- na in ex-|cel- * sis, Ho-|san- na in ex-|cel- * *|sis, in ex-|
 D,16 | A,16 | A,,16 |] z16 | z16 | z16 || z8 D,8 | A,8 G,4 E,4 | F,4 G,4 E,8 | D,6 E,2 F,4 G,4 | %263
w: cel-||sis.||||qui|tol- lis pec-|ca- ta mun-|* * di, pec-|
 A,4 F,4 G,4 C,4 | F,8 C,8 | z16 | z8 z4 F,4- | F,4 G,8 E,4- | E,4 F,4 D,8 | C,8 D,8 | E,12 E,4 | %271
w: ca- ta mun- *|* di:||do-|* na e-|* is re-||* qui-|
 A,,4 F,4 ^C,8 | D,8 D,8 | A,,12 A,,4 | D,16 |] z16 | z16 | z16 || A,8 F,8 | G,12 G,4 | %280
w: em, do- na|e- is|re- qui-|em.||||qui tol-|lis pec-|
 E,4 C,4 G,8 | C,16 | z16 | z4 F,8 G,4- | G,4 E,8 F,4 | D,4 G,6 F,2 E,2 D,2 | ^C,4 D,4 A,,6 A,,2 | %287
w: ca- ta mun-|di:||do- na|_ e- is|re- * * * *|* * * qui-|
 D,16 | D6 C2 B,4 A,4 | G,6 G,2 ^F,8 | G,4 D,4 G,,8 | D,16 |][K:C] z16 || A,8 A,4 A,4 | %294
w: em,|do- na e- is|re- qui- em|sem- pi- ter-|nam.||lu- ce- at|
 ^G,4 A,4 F,6 F,2 | E,4 E,4 A,4 A,4 | F,4 D,4 G,4 G,4 | E,4 C,4 D,8 | C,4 C,8 G,4 | D,12 D,4 | %300
w: e- is Do- mi-|ne: Cum san- ctis|tu- is in ae-|ter- * *|num, qui- a|pi- us|
 G,,16 |] z16 | z16 || C,8 F,4 E,4 | F,6 F,2 C,4 C4- | C2 B,2 A,4 G,4 C,4 | D,8 G,,4 G,4 | %307
w: est.|||et lux per-|pe- tu- a lu-|* ce- at e- *|* is. Cum|
 C4 B,4 C4 A,4 | B,4 C4 A,8 | G,4 G,8 C,4 | D,12 D,4 | G,16 |] %312
w: san ctis tu- is|in ae- ter-|nam, qui- a|pi- us|est.|

